src/assets/outline/Edit.svg

<svg width="24" height="24" viewBox="0 0 24 24"  xmlns="http://www.w3.org/2000/svg">
<path d="M15 22.75H9C3.57 22.75 1.25 20.43 1.25 15V9C1.25 3.57 3.57 1.25 9 1.25H11C11.41 1.25 11.75 1.59 11.75 2C11.75 2.41 11.41 2.75 11 2.75H9C4.39 2.75 2.75 4.39 2.75 9V15C2.75 19.61 4.39 21.25 9 21.25H15C19.61 21.25 21.25 19.61 21.25 15V13C21.25 12.59 21.59 12.25 22 12.25C22.41 12.25 22.75 12.59 22.75 13V15C22.75 20.43 20.43 22.75 15 22.75Z" />
<path d="M8.49984 17.6896C7.88984 17.6896 7.32984 17.4696 6.91984 17.0696C6.42984 16.5796 6.21984 15.8696 6.32984 15.1196L6.75984 12.1096C6.83984 11.5296 7.21984 10.7796 7.62984 10.3696L15.5098 2.48957C17.4998 0.49957 19.5198 0.49957 21.5098 2.48957C22.5998 3.57957 23.0898 4.68957 22.9898 5.79957C22.8998 6.69957 22.4198 7.57957 21.5098 8.47957L13.6298 16.3596C13.2198 16.7696 12.4698 17.1496 11.8898 17.2296L8.87984 17.6596C8.74984 17.6896 8.61984 17.6896 8.49984 17.6896ZM16.5698 3.54957L8.68984 11.4296C8.49984 11.6196 8.27984 12.0596 8.23984 12.3196L7.80984 15.3296C7.76984 15.6196 7.82984 15.8596 7.97984 16.0096C8.12984 16.1596 8.36984 16.2196 8.65984 16.1796L11.6698 15.7496C11.9298 15.7096 12.3798 15.4896 12.5598 15.2996L20.4398 7.41957C21.0898 6.76957 21.4298 6.18957 21.4798 5.64957C21.5398 4.99957 21.1998 4.30957 20.4398 3.53957C18.8398 1.93957 17.7398 2.38957 16.5698 3.54957Z" />
<path d="M19.8501 9.83027C19.7801 9.83027 19.7101 9.82027 19.6501 9.80027C17.0201 9.06027 14.9301 6.97027 14.1901 4.34027C14.0801 3.94027 14.3101 3.53027 14.7101 3.41027C15.1101 3.30027 15.5201 3.53027 15.6301 3.93027C16.2301 6.06027 17.9201 7.75027 20.0501 8.35027C20.4501 8.46027 20.6801 8.88027 20.5701 9.28027C20.4801 9.62027 20.1801 9.83027 19.8501 9.83027Z" />
</svg>

<?xml version="1.0" encoding="UTF-8"?>
<svg width="24" height="24" viewBox="0 0 24 24" xmlns="http://www.w3.org/2000/svg">
 <path d="m15 22.75h-6c-5.43 0-7.75-2.32-7.75-7.75v-6c0-5.43 2.32-7.75 7.75-7.75h2c0.41 0 0.75 0.34 0.75 0.75s-0.34 0.75-0.75 0.75h-2c-4.61 0-6.25 1.64-6.25 6.25v6c0 4.61 1.64 6.25 6.25 6.25h6c4.61 0 6.25-1.64 6.25-6.25v-2c0-0.41 0.34-0.75 0.75-0.75s0.75 0.34 0.75 0.75v2c0 5.43-2.32 7.75-7.75 7.75z"/>
 <path d="m8.4998 17.69c-0.61 0-1.17-0.22-1.58-0.62-0.49-0.49-0.7-1.2-0.59-1.95l0.43-3.01c0.08-0.58 0.46-1.33 0.87-1.74l7.88-7.88c1.99-1.99 4.01-1.99 6 0 1.09 1.09 1.58 2.2 1.48 3.31-0.09 0.9-0.57 1.78-1.48 2.68l-7.88 7.88c-0.41 0.41-1.16 0.79-1.74 0.87l-3.01 0.43c-0.13 0.03-0.26 0.03-0.38 0.03zm8.07-14.14-7.88 7.88c-0.19 0.19-0.41 0.63-0.45 0.89l-0.43 3.01c-0.04 0.29 0.02 0.53 0.17 0.68s0.39 0.21 0.68 0.17l3.01-0.43c0.26-0.04 0.71-0.26 0.89-0.45l7.88-7.88c0.65-0.65 0.99-1.23 1.04-1.77 0.06-0.65-0.28-1.34-1.04-2.11-1.6-1.6-2.7-1.15-3.87 0.01z"/>
 <path d="m19.85 9.8303c-0.07 0-0.14-0.01-0.2-0.03-2.63-0.74-4.72-2.83-5.46-5.46-0.11-0.4 0.12-0.81 0.52-0.93 0.4-0.11 0.81 0.12 0.92 0.52 0.6 2.13 2.29 3.82 4.42 4.42 0.4 0.11 0.63 0.53 0.52 0.93-0.09 0.34-0.39 0.55-0.72 0.55z"/>
</svg>
